X: 13247
T: Fishing At Orbost
R: reel
M: 4/4
K: Dmajor
|:EFFE F2AE|EFED DAED|EFFE F2AB|EFFE DAED|
FGGF dFGF|dFGF GFAD|EFFE F2AE|EFED D2DE:|
|:EFFd A2DA|BAAD DAED|EFFd A2DA|BDED DAED|
FGGF G2FG|BGAF GFED|FGGD G2FG|BdAd dFAD:|

